public/icons/sign-in-phone.svg

<svg width="175" height="349" viewBox="0 0 175 349" fill="none" xmlns="http://www.w3.org/2000/svg">
<path d="M174.68 82.9153H172.761V30.3972C172.761 26.4054 171.974 22.4527 170.446 18.7647C168.917 15.0768 166.676 11.7258 163.852 8.90314C161.027 6.0805 157.673 3.84145 153.983 2.31385C150.292 0.786245 146.336 0 142.342 0H30.989C22.9212 0 15.1838 3.20256 9.47905 8.90314C3.77425 14.6037 0.569336 22.3354 0.569336 30.3972V318.52C0.569336 322.512 1.35615 326.465 2.88489 330.153C4.41362 333.841 6.65432 337.192 9.47905 340.015C12.3038 342.837 15.6572 345.076 19.3479 346.604C23.0386 348.131 26.9942 348.918 30.989 348.918H142.342C150.409 348.918 158.147 345.715 163.851 340.014C169.556 334.314 172.761 326.582 172.761 318.52V120.299H174.679L174.68 82.9153Z" fill="#E6E6E6"/>
<path d="M143.569 7.9054H129.035C129.703 9.54305 129.958 11.3199 129.778 13.0793C129.597 14.8387 128.986 16.5267 127.999 17.9946C127.012 19.4625 125.678 20.6652 124.116 21.4967C122.554 22.3283 120.811 22.7632 119.041 22.7632H55.2486C53.4787 22.7631 51.736 22.3281 50.174 21.4964C48.612 20.6648 47.2787 19.462 46.2914 17.9942C45.3042 16.5263 44.6934 14.8384 44.5128 13.079C44.3321 11.3197 44.5873 9.54298 45.2557 7.9054H31.68C25.6551 7.9054 19.8769 10.297 15.6166 14.5542C11.3563 18.8113 8.96289 24.5852 8.96289 30.6057V318.31C8.96289 324.331 11.3563 330.105 15.6166 334.362C19.8769 338.619 25.6551 341.011 31.68 341.011H143.569C149.594 341.011 155.372 338.619 159.632 334.362C163.893 330.105 166.286 324.331 166.286 318.31V30.6053C166.286 24.5848 163.892 18.811 159.632 14.554C155.372 10.297 149.594 7.9054 143.569 7.9054Z" fill="white"/>
<path d="M73.3665 122.512C73.3661 120.501 73.8959 118.526 74.9025 116.784C75.9091 115.043 77.3569 113.597 79.1004 112.592C77.3578 111.587 75.381 111.057 73.3686 111.057C71.3563 111.057 69.3794 111.586 67.6366 112.591C65.8938 113.596 64.4465 115.042 63.4403 116.784C62.434 118.525 61.9043 120.501 61.9043 122.512C61.9043 124.522 62.434 126.498 63.4403 128.239C64.4465 129.981 65.8938 131.427 67.6366 132.432C69.3794 133.437 71.3563 133.966 73.3686 133.966C75.381 133.966 77.3578 133.436 79.1004 132.431C77.357 131.426 75.9092 129.981 74.9026 128.24C73.8961 126.499 73.3662 124.523 73.3665 122.512Z" fill="#CCCCCC"/>
<path d="M87.7778 122.512C87.7774 120.501 88.3072 118.526 89.3138 116.784C90.3204 115.043 91.7683 113.597 93.5118 112.592C91.7692 111.587 89.7924 111.057 87.78 111.057C85.7676 111.057 83.7907 111.586 82.0478 112.591C80.305 113.596 78.8577 115.042 77.8514 116.784C76.8452 118.525 76.3154 120.501 76.3154 122.512C76.3154 124.522 76.8452 126.498 77.8514 128.239C78.8577 129.981 80.305 131.427 82.0478 132.432C83.7907 133.437 85.7676 133.966 87.78 133.966C89.7924 133.966 91.7692 133.436 93.5118 132.431C91.7685 131.426 90.3206 129.981 89.314 128.24C88.3074 126.499 87.7776 124.523 87.7778 122.512Z" fill="#CCCCCC"/>
<path d="M101.861 133.966C108.191 133.966 113.324 128.838 113.324 122.512C113.324 116.186 108.191 111.057 101.861 111.057C95.5297 111.057 90.3975 116.186 90.3975 122.512C90.3975 128.838 95.5297 133.966 101.861 133.966Z" fill="#3056D3"/>
<path d="M121.018 158.289H54.2086C53.5726 158.288 52.9628 158.035 52.5131 157.586C52.0633 157.137 51.8103 156.527 51.8096 155.892V89.1315C51.8103 88.496 52.0633 87.8866 52.5131 87.4372C52.9628 86.9878 53.5726 86.735 54.2086 86.7343H121.018C121.654 86.735 122.264 86.9878 122.714 87.4372C123.164 87.8866 123.417 88.496 123.417 89.1315V155.892C123.417 156.527 123.164 157.137 122.714 157.586C122.264 158.035 121.654 158.288 121.018 158.289ZM54.2086 87.6937C53.827 87.6941 53.4611 87.8457 53.1913 88.1154C52.9214 88.385 52.7697 88.7507 52.7693 89.132V155.892C52.7697 156.274 52.9214 156.639 53.1913 156.909C53.4611 157.178 53.827 157.33 54.2086 157.33H121.018C121.4 157.33 121.766 157.178 122.036 156.909C122.305 156.639 122.457 156.274 122.458 155.892V89.132C122.457 88.7507 122.305 88.385 122.036 88.1154C121.766 87.8457 121.4 87.6941 121.018 87.6937H54.2086Z" fill="#CCCCCC"/>
<path d="M135.936 209.464H33.4707V210.423H135.936V209.464Z" fill="#CCCCCC"/>
<path d="M36.7066 203.477C38.4938 203.477 39.9426 202.029 39.9426 200.243C39.9426 198.457 38.4938 197.01 36.7066 197.01C34.9195 197.01 33.4707 198.457 33.4707 200.243C33.4707 202.029 34.9195 203.477 36.7066 203.477Z" fill="#3056D3"/>
<path d="M135.936 241.797H33.4707V242.757H135.936V241.797Z" fill="#CCCCCC"/>
<path d="M36.7066 235.811C38.4938 235.811 39.9426 234.363 39.9426 232.577C39.9426 230.791 38.4938 229.344 36.7066 229.344C34.9195 229.344 33.4707 230.791 33.4707 232.577C33.4707 234.363 34.9195 235.811 36.7066 235.811Z" fill="#3056D3"/>
<path d="M134.061 278.617H101.679C101.12 278.617 100.583 278.394 100.188 277.999C99.7924 277.604 99.5699 277.068 99.5693 276.509V265.168C99.5699 264.609 99.7924 264.073 100.188 263.678C100.583 263.283 101.12 263.06 101.679 263.06H134.061C134.62 263.06 135.157 263.283 135.552 263.678C135.948 264.073 136.17 264.609 136.171 265.168V276.509C136.17 277.068 135.948 277.604 135.552 277.999C135.157 278.394 134.62 278.617 134.061 278.617Z" fill="#3056D3"/>
<path d="M47.2613 203.477C49.0485 203.477 50.4972 202.029 50.4972 200.243C50.4972 198.457 49.0485 197.01 47.2613 197.01C45.4742 197.01 44.0254 198.457 44.0254 200.243C44.0254 202.029 45.4742 203.477 47.2613 203.477Z" fill="#3056D3"/>
<path d="M57.817 203.477C59.6042 203.477 61.053 202.029 61.053 200.243C61.053 198.457 59.6042 197.01 57.817 197.01C56.0299 197.01 54.5811 198.457 54.5811 200.243C54.5811 202.029 56.0299 203.477 57.817 203.477Z" fill="#3056D3"/>
<path d="M47.2613 235.811C49.0485 235.811 50.4972 234.363 50.4972 232.577C50.4972 230.791 49.0485 229.344 47.2613 229.344C45.4742 229.344 44.0254 230.791 44.0254 232.577C44.0254 234.363 45.4742 235.811 47.2613 235.811Z" fill="#3056D3"/>
<path d="M57.817 235.811C59.6042 235.811 61.053 234.363 61.053 232.577C61.053 230.791 59.6042 229.344 57.817 229.344C56.0299 229.344 54.5811 230.791 54.5811 232.577C54.5811 234.363 56.0299 235.811 57.817 235.811Z" fill="#3056D3"/>
</svg>

<svg width="175" height="349" fill="none" xmlns="http://www.w3.org/2000/svg"><path d="M174.68 82.915h-1.919V30.397a30.391 30.391 0 0 0-18.778-28.083A30.443 30.443 0 0 0 142.342 0H30.989a30.431 30.431 0 0 0-21.51 8.903A30.386 30.386 0 0 0 .57 30.397V318.52a30.38 30.38 0 0 0 8.91 21.495 30.437 30.437 0 0 0 21.51 8.903h111.353a30.428 30.428 0 0 0 21.509-8.904 30.384 30.384 0 0 0 8.91-21.494V120.299h1.918l.001-37.384Z" fill="#E6E6E6"/><path d="M143.569 7.905h-14.534a10.788 10.788 0 0 1-9.994 14.858H55.249a10.799 10.799 0 0 1-8.958-4.769 10.78 10.78 0 0 1-1.035-10.089H31.68a22.725 22.725 0 0 0-16.063 6.65 22.692 22.692 0 0 0-6.654 16.05V318.31a22.692 22.692 0 0 0 6.654 16.052 22.726 22.726 0 0 0 16.063 6.649h111.889a22.725 22.725 0 0 0 16.063-6.649 22.69 22.69 0 0 0 6.654-16.052V30.605c0-6.02-2.394-11.794-6.654-16.051a22.724 22.724 0 0 0-16.063-6.649Z" fill="#fff"/><path d="M73.367 122.512a11.443 11.443 0 0 1 5.733-9.92 11.474 11.474 0 0 0-11.463-.001 11.453 11.453 0 0 0 5.732 21.375c2.012 0 3.989-.53 5.731-1.535a11.442 11.442 0 0 1-5.734-9.919Z" fill="#CCC"/><path d="M87.778 122.512a11.443 11.443 0 0 1 5.734-9.92 11.474 11.474 0 0 0-11.464-.001 11.454 11.454 0 0 0-4.197 15.648 11.454 11.454 0 0 0 4.197 4.193 11.475 11.475 0 0 0 11.464-.001 11.442 11.442 0 0 1-5.734-9.919Z" fill="#CCC"/><path d="M101.861 133.966c6.33 0 11.463-5.128 11.463-11.454 0-6.326-5.133-11.455-11.463-11.455-6.331 0-11.464 5.129-11.464 11.455 0 6.326 5.133 11.454 11.464 11.454Z" fill="#3056D3"/><path d="M121.018 158.289h-66.81a2.398 2.398 0 0 1-2.399-2.397v-66.76a2.399 2.399 0 0 1 2.4-2.398h66.809a2.404 2.404 0 0 1 2.399 2.398v66.76c0 .635-.253 1.245-.703 1.694-.45.449-1.06.702-1.696.703Zm-66.81-70.595a1.441 1.441 0 0 0-1.439 1.438v66.76a1.44 1.44 0 0 0 1.44 1.438h66.809a1.443 1.443 0 0 0 1.44-1.438v-66.76a1.442 1.442 0 0 0-1.44-1.438h-66.81ZM135.936 209.464H33.471v.959h102.465v-.959Z" fill="#CCC"/><path d="M36.707 203.477a3.234 3.234 0 1 0 0-6.467 3.234 3.234 0 1 0 0 6.467Z" fill="#3056D3"/><path d="M135.936 241.797H33.471v.96h102.465v-.96Z" fill="#CCC"/><path d="M36.707 235.811a3.234 3.234 0 1 0 0-6.467 3.234 3.234 0 1 0 0 6.467ZM134.061 278.617h-32.382a2.11 2.11 0 0 1-2.11-2.108v-11.341a2.109 2.109 0 0 1 2.11-2.108h32.382a2.11 2.11 0 0 1 2.11 2.108v11.341a2.11 2.11 0 0 1-2.11 2.108ZM47.261 203.477a3.234 3.234 0 1 0 0-6.467 3.234 3.234 0 1 0 0 6.467ZM57.817 203.477a3.234 3.234 0 1 0 0-6.467 3.234 3.234 0 1 0 0 6.467ZM47.261 235.811a3.234 3.234 0 1 0 0-6.467 3.234 3.234 0 1 0 0 6.467ZM57.817 235.811a3.234 3.234 0 1 0 0-6.467 3.234 3.234 0 1 0 0 6.467Z" fill="#3056D3"/></svg>
